brandFactory_export/3.Masa/Lista de consultas _3Masa.svg

<?xml version="1.0" encoding="UTF-8"?>
<svg width="24px" height="24px" viewBox="0 0 24 24" version="1.1" xmlns="http://www.w3.org/2000/svg" xmlns:xlink="http://www.w3.org/1999/xlink">
    <title>3.Masa/Lista de consultas _3Masa</title>
    <g id="Symbols" stroke="none" stroke-width="1" fill="none" fill-rule="evenodd">
        <g id="3.Masa/Lista-de-consultas-_3Masa" fill="#5CB615" fill-rule="nonzero">
            <path d="M9.87226891,4.01344538 C8.44033613,3.59327731 7.5697479,3.02521008 7.34117647,2.36638655 C7.34117647,2.35630252 7.34117647,2.35630252 7.32773109,2.34621849 C7.55966387,1.6907563 8.4302521,1.1092437 9.8487395,0.68907563 C11.3579832,0.248739496 13.3512605,0 15.4655462,0 C17.5798319,0 19.5731092,0.248739496 21.0689076,0.68907563 C22.5647059,1.13277311 23.4151261,1.71092437 23.6,2.4 C23.6,2.4 23.589916,2.41008403 23.589916,2.42352941 C23.3378151,3.05882353 22.4773109,3.60672269 21.0789916,4.01680672 C19.5697479,4.45714286 17.589916,4.70588235 15.4756303,4.70588235 C13.3613445,4.70588235 11.3781513,4.45714286 9.87226891,4.01344538 Z M13.5327731,12.8302521 C13.5327731,12.1378151 13.3613445,11.492437 13.0722689,10.9042017 C12.9109244,10.5680672 12.6991597,10.2621849 12.4638655,9.97647059 C12.4168067,9.91932773 12.3731092,9.86218487 12.3226891,9.81176471 C12.2184874,9.69747899 12.1109244,9.59327731 11.9932773,9.49243697 C11.9058824,9.41512605 11.8184874,9.34453782 11.7243697,9.27394958 C11.6201681,9.19663866 11.5226891,9.11260504 11.4117647,9.04537815 C11.210084,8.91764706 11.0016807,8.80672269 10.7831933,8.71260504 C10.702521,8.67563025 10.6151261,8.65210084 10.5310924,8.61848739 C10.3529412,8.5512605 10.1714286,8.49747899 9.98319328,8.45042017 C9.90252101,8.4302521 9.81848739,8.41344538 9.73781513,8.39663866 C9.46890756,8.34957983 9.19327731,8.31596639 8.91092437,8.31596639 C8.61512605,8.31596639 8.33277311,8.34957983 8.05378151,8.4 C7.78151261,8.45378151 7.51596639,8.53109244 7.2605042,8.62521008 C5.52941176,9.27731092 4.29243697,10.9109244 4.29243697,12.8302521 C4.29243697,14.7495798 5.52941176,16.3831933 7.2605042,17.0352941 C7.61344538,17.1697479 7.98991597,17.2504202 8.37983193,17.2941176 C8.55798319,17.3142857 8.72941176,17.3478992 8.91092437,17.3478992 C9.61344538,17.3478992 10.2689076,17.1831933 10.8638655,16.9109244 C11.1798319,16.7630252 11.4722689,16.5781513 11.7478992,16.3697479 C11.8352941,16.302521 11.9260504,16.2319328 12.010084,16.1579832 C12.1109244,16.0705882 12.2084034,15.9764706 12.2991597,15.8789916 C12.4,15.7747899 12.487395,15.6638655 12.5781513,15.5495798 C12.6453782,15.4655462 12.712605,15.3882353 12.7731092,15.3042017 C12.9109244,15.102521 13.0252101,14.887395 13.1260504,14.6655462 C13.1630252,14.5882353 13.189916,14.507563 13.2201681,14.4268908 C13.287395,14.2487395 13.3478992,14.0672269 13.3915966,13.8823529 C13.4117647,13.8016807 13.4319328,13.7243697 13.4487395,13.6436975 C13.4957983,13.3747899 13.5327731,13.1058824 13.5327731,12.8302521 L13.5327731,12.8302521 Z M15.4756303,11.0218487 C15.2168067,11.0218487 14.9680672,11.0117647 14.7159664,11.0016807 C14.8302521,11.3478992 14.9109244,11.707563 14.9579832,12.0773109 C15.1327731,12.0806723 15.3008403,12.097479 15.4756303,12.097479 C17.7008403,12.097479 19.8016807,11.8386555 21.4016807,11.3647059 C22.302521,11.1058824 23.0756303,10.7394958 23.6571429,10.2991597 L23.6571429,15.0789916 C23.3815126,15.5831933 22.5647059,16.2521008 21.0789916,16.692437 C19.5831933,17.1327731 17.589916,17.3815126 15.4756303,17.3815126 C14.6117647,17.3815126 13.7747899,17.3378151 12.9815126,17.2571429 C12.5714286,17.6168067 12.1142857,17.9193277 11.6201681,18.1647059 C12.810084,18.3495798 14.1142857,18.4605042 15.4756303,18.4605042 C17.7008403,18.4605042 19.8016807,18.2016807 21.4016807,17.7277311 C22.302521,17.4689076 23.0756303,17.092437 23.6571429,16.6521008 L23.6571429,20.9042017 C23.6571429,21.7445378 22.7865546,22.4336134 21.0689076,22.9378151 C19.5596639,23.3781513 17.5663866,23.6268908 15.4655462,23.6268908 C13.3613445,23.6268908 11.3714286,23.3815126 9.8487395,22.9378151 C8.13109244,22.4302521 7.2605042,21.7411765 7.2605042,20.9042017 L7.2605042,18.5546218 C6.55798319,18.3596639 5.90588235,18.0571429 5.33109244,17.6470588 L1.29747899,21.589916 C1.15294118,21.7310924 0.964705882,21.8016807 0.773109244,21.8016807 C0.58487395,21.8016807 0.393277311,21.7310924 0.248739496,21.589916 C-0.0403361345,21.307563 -0.0403361345,20.8504202 0.248739496,20.5680672 L4.24201681,16.6621849 C3.34789916,15.6235294 2.81008403,14.2890756 2.81008403,12.8302521 C2.81008403,10.1042017 4.69579832,7.80168067 7.2605042,7.09579832 L7.2605042,3.97310924 C7.81176471,4.40336134 8.57142857,4.7697479 9.55294118,5.0487395 C11.1596639,5.52268908 13.2638655,5.78151261 15.4756303,5.78151261 C17.687395,5.78151261 19.7915966,5.52268908 21.4016807,5.0487395 C22.3596639,4.7697479 23.1058824,4.42352941 23.6571429,3.99663866 L23.6571429,8.72941176 C23.3815126,9.23361345 22.5647059,9.90252101 21.0789916,10.3428571 C19.5831933,10.7831933 17.589916,11.0218487 15.4756303,11.0218487 Z" id="Lista-de-consultas-_3Masa"></path>
        </g>
    </g>
</svg>

<svg width="24" height="24" viewBox="0 0 24 24" xmlns="http://www.w3.org/2000/svg"><path d="M9.872 4.013c-1.432-.42-2.302-.988-2.53-1.647 0-.01 0-.01-.014-.02C7.56 1.691 8.43 1.11 9.848.69 11.359.25 13.352 0 15.467 0c2.114 0 4.107.249 5.603.69 1.496.443 2.346 1.02 2.531 1.71 0 0-.01.01-.01.024-.252.635-1.113 1.183-2.511 1.593-1.51.44-3.49.689-5.603.689-2.115 0-4.098-.249-5.604-.693zm3.66 8.817c0-.692-.17-1.338-.46-1.926a4.602 4.602 0 00-.608-.928c-.047-.057-.09-.114-.141-.164a3.694 3.694 0 00-.33-.32 4.233 4.233 0 00-.269-.218c-.104-.077-.201-.161-.312-.229a4.495 4.495 0 00-.629-.332c-.08-.037-.168-.06-.252-.095a4.927 4.927 0 00-.548-.168c-.08-.02-.165-.037-.245-.053a4.788 4.788 0 00-.827-.081 4.78 4.78 0 00-.857.084 5.232 5.232 0 00-.793.225c-1.732.652-2.969 2.286-2.969 4.205 0 1.92 1.237 3.553 2.969 4.205.352.135.729.215 1.119.26.178.02.35.053.53.053a4.67 4.67 0 001.954-.437c.316-.148.608-.333.884-.541.087-.067.178-.138.262-.212.1-.087.198-.182.29-.279.1-.104.187-.215.278-.33.067-.083.135-.16.195-.245.138-.201.252-.417.353-.638.037-.078.064-.158.094-.24.067-.177.128-.359.172-.544.02-.08.04-.158.057-.238.047-.27.084-.538.084-.814zm1.944-1.808c-.26 0-.508-.01-.76-.02.114.346.195.706.242 1.075.175.004.343.02.518.02 2.225 0 4.326-.258 5.926-.732.9-.26 1.674-.626 2.255-1.066v4.78c-.275.504-1.092 1.173-2.578 1.613-1.496.44-3.49.69-5.603.69-.864 0-1.701-.044-2.494-.125-.41.36-.868.662-1.362.908 1.19.185 2.494.296 3.856.296 2.225 0 4.326-.26 5.926-.733.9-.26 1.674-.636 2.255-1.076v4.252c0 .84-.87 1.53-2.588 2.034-1.51.44-3.503.689-5.603.689-2.105 0-4.095-.245-5.617-.69-1.718-.507-2.588-1.196-2.588-2.033v-2.35a6.132 6.132 0 01-1.93-.907L1.297 21.59a.751.751 0 01-1.049 0 .71.71 0 010-1.022l3.994-3.906A5.849 5.849 0 012.81 12.83c0-2.726 1.886-5.028 4.45-5.734V3.973c.552.43 1.311.797 2.293 1.076 1.607.474 3.71.733 5.923.733 2.211 0 4.316-.26 5.926-.733.958-.28 1.704-.625 2.255-1.052v4.732c-.275.505-1.092 1.174-2.578 1.614-1.496.44-3.49.679-5.603.679z" fill="#5CB615" fill-rule="nonzero"/></svg>
